storage/app/icons/phosphoricons/light/calculator-light.svg

<svg xmlns="http://www.w3.org/2000/svg" fill="currentColor" viewBox="0 0 256 256"><path d="M176 58H80a6 6 0 0 0-6 6v48a6 6 0 0 0 6 6h96a6 6 0 0 0 6-6V64a6 6 0 0 0-6-6m-6 48H86V70h84Zm30-80H56a14 14 0 0 0-14 14v176a14 14 0 0 0 14 14h144a14 14 0 0 0 14-14V40a14 14 0 0 0-14-14m2 190a2 2 0 0 1-2 2H56a2 2 0 0 1-2-2V40a2 2 0 0 1 2-2h144a2 2 0 0 1 2 2ZM98 148a10 10 0 1 1-10-10 10 10 0 0 1 10 10m40 0a10 10 0 1 1-10-10 10 10 0 0 1 10 10m40 0a10 10 0 1 1-10-10 10 10 0 0 1 10 10m-80 40a10 10 0 1 1-10-10 10 10 0 0 1 10 10m40 0a10 10 0 1 1-10-10 10 10 0 0 1 10 10m40 0a10 10 0 1 1-10-10 10 10 0 0 1 10 10"/></svg>

<svg xmlns="http://www.w3.org/2000/svg" viewBox="0 0 256 256" fill="currentColor"><path d="M176,58H80a6,6,0,0,0-6,6v48a6,6,0,0,0,6,6h96a6,6,0,0,0,6-6V64A6,6,0,0,0,176,58Zm-6,48H86V70h84Zm30-80H56A14,14,0,0,0,42,40V216a14,14,0,0,0,14,14H200a14,14,0,0,0,14-14V40A14,14,0,0,0,200,26Zm2,190a2,2,0,0,1-2,2H56a2,2,0,0,1-2-2V40a2,2,0,0,1,2-2H200a2,2,0,0,1,2,2ZM98,148a10,10,0,1,1-10-10A10,10,0,0,1,98,148Zm40,0a10,10,0,1,1-10-10A10,10,0,0,1,138,148Zm40,0a10,10,0,1,1-10-10A10,10,0,0,1,178,148ZM98,188a10,10,0,1,1-10-10A10,10,0,0,1,98,188Zm40,0a10,10,0,1,1-10-10A10,10,0,0,1,138,188Zm40,0a10,10,0,1,1-10-10A10,10,0,0,1,178,188Z"/></svg>
